X:1
T:Timmy Clifford's
T:Tim Clifford's
R:jig
M:6/8
L:1/8
K:Gmaj
|G,B,D E2 D|DB,D G2 G,|G,B,D C2 B|
AGF GDB,|G,B,D EG/E/D|DB,D GAB|
d3 ~B3|1 AGF GDB,:|2 AGF GBd||
|efe d2 B|BAG GBd|efe d2 B|
BAG ABd|efe d2 B|BAG GAB|
~c3 ~B3|1 AGF GBd:|2AGF GDB,||
